static/images/mobile/copyright/wikipedia-tagline-wuu.svg

<svg width="120" height="16" viewBox="0 0 120 16" fill="none" xmlns="http://www.w3.org/2000/svg">
<path d="M1.39331 14.001V10.7556H9.14144V14.001H1.39331ZM9.14144 7.06847V10.2459H1.39331V7.06847H9.14144ZM9.14144 3.46626V6.5927H1.39331V3.46626H9.14144ZM9.70216 2.12394L8.95453 2.99051H4.31585C4.94453 2.31085 5.55623 1.49526 5.96402 0.86657C6.32085 0.849578 6.50775 0.679668 6.55873 0.47577L4.31585 0.0849512C4.2139 0.934527 3.99301 2.10695 3.72114 2.99051H1.51225L0 2.31085V15.7171H0.237883C0.866569 15.7171 1.39331 15.3603 1.39331 15.1904V14.5108H9.14144V15.6832H9.34534C9.83809 15.6832 10.5178 15.3264 10.5517 15.1904V3.75512C10.9086 3.67017 11.1634 3.51724 11.2824 3.38131L9.70216 2.12394ZM23.6475 13.8141V9.26038H27.9294V13.8141H23.6475ZM18.1083 9.26038H22.2542V13.8141H18.1083V9.26038ZM22.2542 4.48577V8.75063H18.1083V4.48577H22.2542ZM27.9294 4.48577V8.75063H23.6475V4.48577H27.9294ZM28.5071 3.09245L27.7255 3.99301H23.6475V0.917548C24.0723 0.849582 24.2082 0.67966 24.2592 0.441778L22.2542 0.22088V3.99301H18.2272L16.749 3.33033V15.7342H16.9868C17.5645 15.7342 18.1083 15.4113 18.1083 15.2414V14.3069H27.9294V15.6152H28.1333C28.626 15.6152 29.2887 15.2924 29.3057 15.1564V4.84258C29.7305 4.75762 30.0703 4.58772 30.2062 4.4178L28.5071 3.09245ZM62.7016 5.53924V9.2264H54.9705V5.53924H62.7016ZM54.9705 13.7801V9.71914H62.7016V13.7801H54.9705ZM63.5682 1.58021H51.3343L51.4872 2.05598H57.6722L57.5721 2.81954C57.4629 3.60964 57.3323 4.44754 57.2304 5.04649H55.0894L53.5942 4.4008V15.7002H53.8321C54.4438 15.7002 54.9705 15.3603 54.9705 15.1904V14.2729H62.7016V15.5982H62.9225C63.3983 15.5982 64.078 15.2584 64.0949 15.1564V5.79411C64.4348 5.72615 64.6897 5.57322 64.7916 5.43729L63.2624 4.23089L62.5317 5.04649H57.7571C58.2838 4.26488 58.8955 3.09246 59.3713 2.05598H65.8451C66.1 2.05598 66.2699 1.97101 66.3208 1.7841L65.3647 1.01675C64.913 0.66191 64.5367 0.373814 64.5367 0.373814L63.5682 1.58021ZM76.4941 2.005C77.3097 2.63368 78.2612 3.72114 78.55 4.62169C79.9264 5.50525 80.8609 2.71865 76.664 1.86907L76.4941 2.005ZM76.1203 6.08296C76.9528 6.67766 77.9384 7.74814 78.2272 8.6147C79.6375 9.48127 80.5551 6.67767 76.2732 5.93004L76.1203 6.08296ZM73.2487 5.67517H75.6955C75.9164 5.67517 76.0863 5.5902 76.1203 5.4033L75.8994 5.18313C75.3906 4.6905 74.727 4.12894 74.727 4.12894L73.9454 5.18242H73.2487V2.03899C73.9114 1.86907 74.5231 1.69916 75.0328 1.54623C75.4746 1.68217 75.7974 1.68215 75.9333 1.52923L74.3362 0.135929C73.1637 0.917539 70.8359 1.93703 68.9159 2.49775L69.0008 2.75263C69.9523 2.66767 70.9718 2.49775 71.9234 2.31085V5.18242H68.9328L69.0688 5.67517H71.6685C71.0568 8.03699 70.0033 10.4838 68.559 12.2849L68.7969 12.5058C70.0543 11.4013 71.1078 10.093 71.9234 8.6147V15.7511H72.1442C72.7899 15.7511 73.2487 15.4283 73.2487 15.3263V7.22139C73.8434 7.91804 74.4721 8.81859 74.693 9.58321C75.8484 10.4328 76.8679 8.13893 73.2487 6.77961V5.67517ZM82.73 9.8211L82.1353 9.94004V1.12144C82.5601 1.05348 82.696 0.866567 82.7469 0.628685L80.8099 0.424792V10.1949L74.8459 11.3503L75.0668 11.7921L80.8099 10.6877V15.7002H81.0648C81.5745 15.7002 82.1353 15.3773 82.1353 15.2074V10.4328L84.5311 9.97403C84.735 9.94005 84.9049 9.80411 84.9049 9.6172L84.3941 9.2261C83.9031 8.85998 83.4096 8.51275 83.4096 8.51275L82.73 9.8211ZM99.4959 14.6297H95.1801V10.9765H99.9887C100.227 10.9765 100.413 10.8916 100.447 10.7047L100.196 10.4938C99.5798 9.98968 98.7992 9.4303 98.7992 9.4303L97.9327 10.4838H95.1801V7.27236H99.258C99.4959 7.27236 99.6658 7.18741 99.7168 7.00051L99.3454 6.69675C98.7817 6.24246 98.1536 5.76012 98.1536 5.76012L97.304 6.77961H89.5729L89.7088 7.27236H93.7698V10.4838H89.25L89.386 10.9765H93.7698V14.6297H87.1261L87.279 15.1394H101.688C101.926 15.1394 102.096 15.0545 102.13 14.8676L101.891 14.6502C101.26 14.0923 100.413 13.4573 100.413 13.4573L99.4959 14.6297ZM93.7018 0C92.8352 2.48076 89.4369 6.09996 86.5824 7.86708L86.7013 8.08796C89.9467 6.5927 93.379 3.70415 95.0271 1.13843C96.1826 3.73813 98.7143 5.99801 101.399 7.44229C101.535 6.91555 101.994 6.37182 102.622 6.23589L102.639 5.98102C99.7848 4.84259 96.8622 3.12645 95.333 0.917548C95.7748 0.883565 95.9956 0.798597 96.0466 0.577707L93.7018 0ZM115.429 0.798606C116.449 1.51225 117.791 2.80361 118.352 3.78912C119.966 4.51975 120.561 1.42728 115.582 0.645672L115.429 0.798606ZM110.808 0.0509779L112.779 0.271858C112.745 0.492748 112.626 0.64567 112.235 0.713636V3.68716H115.463L116.092 2.97351L117.502 4.11195C117.383 4.24788 117.247 4.29885 116.942 4.33283L116.687 8.037H117.723L118.522 7.23839L120 8.47878C119.881 8.61471 119.677 8.69966 119.337 8.75063L119.302 9.49048C119.165 11.9855 118.87 13.4891 118.25 14.001C117.808 14.3748 117.162 14.5617 116.33 14.5617C116.347 14.1369 116.262 13.7801 116.024 13.5762C115.735 13.3553 115.021 13.1345 114.342 13.0325L114.359 12.7776L116.266 12.9138C116.442 12.9242 116.585 12.9305 116.67 12.9305C116.975 12.9305 117.111 12.8966 117.247 12.7776C117.604 12.4548 117.791 10.9085 117.876 8.52974H112.235V15.2244C112.235 15.4113 111.606 15.7511 111.079 15.7511H110.808V8.52974H104.946L104.81 8.037H110.808V4.1969H106.22L106.067 3.68716H110.808V0.0509779ZM115.582 4.1969H112.235V8.037H115.31L115.582 4.1969ZM33.0848 8.56373C36.6361 6.88157 39.6436 3.82308 41.1048 1.22338C42.4132 4.09495 44.741 6.55873 47.6806 8.24089C47.8505 7.68017 48.2243 7.17041 48.836 6.96652L48.87 6.71164C45.7265 5.48825 43.0079 3.3813 41.3937 1.03647C41.8864 0.985498 42.0564 0.883561 42.1243 0.679663L39.8645 0.0849512C38.828 2.85457 35.9904 6.30385 32.9659 8.32584L33.0848 8.56373ZM40.4082 15.7851C40.9519 15.7851 41.5806 15.4793 41.5806 15.3263V5.5902C42.0224 5.52224 42.1753 5.35233 42.2093 5.11445L40.1363 4.91054V15.7851H40.4082Z" fill="black"/>
</svg>

<svg xmlns="http://www.w3.org/2000/svg" width="120" height="16" fill="none"><path fill="#000" d="M1.393 14.001v-3.245h7.748V14H1.393Zm7.748-6.933v3.178H1.393V7.068h7.748Zm0-3.602v3.127H1.393V3.466h7.748Zm.561-1.342-.747.867h-4.64c.63-.68 1.241-1.496 1.649-2.124.357-.017.544-.187.595-.391L4.316.085c-.102.85-.323 2.022-.595 2.906H1.512L0 2.31v13.406h.238c.629 0 1.155-.357 1.155-.527v-.68h7.748v1.173h.204c.493 0 1.173-.357 1.207-.493V3.755c.357-.085.611-.238.73-.374l-1.58-1.257Zm13.946 11.69V9.26h4.281v4.554h-4.281Zm-5.54-4.554h4.146v4.554h-4.146V9.26Zm4.146-4.774V8.75h-4.146V4.486h4.146Zm5.675 0V8.75h-4.281V4.486h4.281Zm.578-1.394-.782.901h-4.078V.918c.425-.068.561-.238.612-.476L22.254.22v3.772h-4.027L16.75 3.33v12.404h.238c.578 0 1.121-.323 1.121-.493v-.934h9.821v1.308h.204c.493 0 1.156-.323 1.173-.459V4.843c.424-.085.764-.255.9-.425l-1.699-1.326ZM62.702 5.54v3.687H54.97V5.54h7.73ZM54.97 13.78V9.72h7.73v4.06h-7.73Zm8.597-12.2H51.334l.153.476h6.185l-.1.764c-.11.79-.24 1.628-.342 2.226h-2.14l-1.496-.645v11.3h.238c.612 0 1.139-.34 1.139-.51v-.918h7.73v1.325h.221c.476 0 1.156-.34 1.173-.442V5.794c.34-.068.595-.22.697-.357l-1.53-1.206-.73.815h-4.775c.527-.781 1.139-1.954 1.614-2.99h6.474c.255 0 .425-.085.476-.272l-.956-.767a94.057 94.057 0 0 0-.828-.643l-.969 1.206Zm12.926.425c.816.629 1.767 1.716 2.056 2.617 1.376.883 2.31-1.903-1.886-2.753l-.17.136Zm-.374 4.078c.833.595 1.818 1.665 2.107 2.532 1.41.866 2.328-1.937-1.954-2.685l-.153.153Zm-2.871-.408h2.447c.22 0 .39-.085.424-.272l-.22-.22c-.51-.492-1.173-1.054-1.173-1.054l-.782 1.053h-.696V2.04c.662-.17 1.274-.34 1.784-.493.442.136.764.136.9-.017L74.336.136c-1.172.782-3.5 1.801-5.42 2.362l.085.255a28.916 28.916 0 0 0 2.922-.442v2.871h-2.99l.136.493h2.6c-.612 2.362-1.666 4.809-3.11 6.61l.238.22a14.464 14.464 0 0 0 3.126-3.89v7.136h.221c.646 0 1.105-.323 1.105-.425V7.221c.594.697 1.223 1.598 1.444 2.362 1.155.85 2.175-1.444-1.444-2.803V5.675Zm9.481 4.146-.595.119V1.121c.425-.068.561-.254.612-.492L80.81.425v9.77l-5.964 1.155.22.442 5.744-1.104V15.7h.255c.51 0 1.07-.323 1.07-.493v-4.774l2.396-.459c.204-.034.374-.17.374-.357l-.51-.39a50.395 50.395 0 0 0-.985-.714l-.68 1.308Zm16.766 4.809H95.18v-3.654h4.809c.238 0 .424-.084.458-.271l-.251-.211c-.616-.504-1.397-1.064-1.397-1.064l-.866 1.054H95.18V7.272h4.078c.238 0 .408-.085.459-.271l-.372-.304a75.274 75.274 0 0 0-1.191-.937l-.85 1.02h-7.731l.136.492h4.06v3.212H89.25l.136.492h4.384v3.654h-6.644l.153.51h14.409c.238 0 .408-.085.442-.272l-.239-.218a28.285 28.285 0 0 0-1.478-1.193l-.917 1.173ZM93.702 0c-.867 2.48-4.265 6.1-7.12 7.867l.12.221c3.245-1.495 6.677-4.384 8.325-6.95 1.156 2.6 3.687 4.86 6.372 6.304.136-.526.595-1.07 1.223-1.206l.017-.255c-2.854-1.138-5.777-2.855-7.306-5.063.442-.034.663-.12.714-.34L93.702 0Zm21.727.799c1.02.713 2.362 2.005 2.923 2.99 1.614.73 2.209-2.362-2.77-3.143l-.153.153ZM110.808.05l1.971.22c-.034.222-.153.375-.544.443v2.973h3.228l.629-.713 1.41 1.138c-.119.136-.255.187-.56.22l-.255 3.705h1.036l.799-.799L120 8.478c-.119.137-.323.222-.663.273l-.035.74c-.137 2.495-.432 3.998-1.052 4.51-.442.374-1.088.56-1.92.56.017-.424-.068-.78-.306-.985-.289-.22-1.003-.442-1.682-.543l.017-.255 1.907.136c.176.01.319.017.404.017.305 0 .441-.034.577-.153.357-.323.544-1.87.629-4.248h-5.641v6.694c0 .187-.629.527-1.156.527h-.271V8.53h-5.862l-.136-.493h5.998v-3.84h-4.588l-.153-.51h4.741V.051Zm4.774 4.146h-3.347v3.84h3.075l.272-3.84ZM33.085 8.564c3.551-1.682 6.559-4.74 8.02-7.34 1.308 2.87 3.636 5.335 6.576 7.017.17-.56.543-1.07 1.155-1.274l.034-.255c-3.143-1.224-5.862-3.33-7.476-5.676.492-.05.662-.152.73-.356l-2.26-.595c-1.036 2.77-3.874 6.219-6.898 8.24l.119.239Zm7.323 7.221c.544 0 1.173-.306 1.173-.459V5.59c.441-.068.594-.238.628-.476l-2.073-.203v10.874h.272Z"/></svg>
